Simply-Orange-Circles/scalable/places/folder-tar.svg

<svg xmlns="http://www.w3.org/2000/svg" width="48" height="48" viewBox="0 0 12.7 12.7"><path fill="#ff7f2a" d="M6.34.07a6.29 6.29 0 0 0-6.29 6.3 6.29 6.29 0 0 0 6.3 6.28 6.29 6.29 0 0 0 6.28-6.29A6.29 6.29 0 0 0 6.34.07zm-.27.95v.32h-.82a.27.27 0 0 0-.26.27v.38c0 .15.12.27.26.27h.82v.9h-.82a.27.27 0 0 0-.26.26v.38c0 .15.12.27.26.27h.82v.9h-.82a.27.27 0 0 0-.26.27v.38c0 .15.12.27.26.27h.82v1a1.05 1.05 0 0 0-.79 1.03v2.14c0 .58.47 1.06 1.05 1.06s1.06-.47 1.06-1.06V7.92c0-.48-.31-.87-.75-1v-.09h.8c.15 0 .27-.12.27-.26v-.38a.27.27 0 0 0-.26-.27h-.8v-.96h.8c.14 0 .26-.12.26-.27v-.38a.27.27 0 0 0-.27-.27h-.8v-.87h.8c.15 0 .27-.12.27-.26v-.38a.27.27 0 0 0-.27-.27h-.8V1.03a5.4 5.4 0 0 1 5.1 5.39 5.4 5.4 0 0 1-5.41 5.4 5.4 5.4 0 0 1-5.41-5.4 5.4 5.4 0 0 1 5.16-5.4zm.27 6.4c.3 0 .53.21.53.53a.55.55 0 0 1-.53.53.55.55 0 0 1-.52-.53.5.5 0 0 1 .52-.53zm0 1.58c.3 0 .53.21.53.53v.53a.55.55 0 0 1-.53.52.55.55 0 0 1-.52-.52v-.53A.5.5 0 0 1 6.34 9z"/></svg>

<?xml version="1.0" encoding="UTF-8" standalone="no"?>
<svg
   xmlns:dc="http://purl.org/dc/elements/1.1/"
   xmlns:cc="http://creativecommons.org/ns#"
   xmlns:rdf="http://www.w3.org/1999/02/22-rdf-syntax-ns#"
   xmlns:svg="http://www.w3.org/2000/svg"
   xmlns="http://www.w3.org/2000/svg"
   xmlns:sodipodi="http://sodipodi.sourceforge.net/DTD/sodipodi-0.dtd"
   xmlns:inkscape="http://www.inkscape.org/namespaces/inkscape"
   width="48"
   height="48"
   viewBox="0 0 12.7 12.7"
   version="1.1"
   id="svg4"
   sodipodi:docname="folder-tar.svg"
   inkscape:version="0.92.4 (5da689c313, 2019-01-14)">
  <metadata
     id="metadata10">
    <rdf:RDF>
      <cc:Work
         rdf:about="">
        <dc:format>image/svg+xml</dc:format>
        <dc:type
           rdf:resource="http://purl.org/dc/dcmitype/StillImage" />
        <dc:title></dc:title>
      </cc:Work>
    </rdf:RDF>
  </metadata>
  <defs
     id="defs8" />
  <sodipodi:namedview
     pagecolor="#ffffff"
     bordercolor="#666666"
     borderopacity="1"
     objecttolerance="10"
     gridtolerance="10"
     guidetolerance="10"
     inkscape:pageopacity="0"
     inkscape:pageshadow="2"
     inkscape:window-width="1085"
     inkscape:window-height="480"
     id="namedview6"
     showgrid="false"
     inkscape:zoom="4.9166667"
     inkscape:cx="2.1355932"
     inkscape:cy="24"
     inkscape:window-x="0"
     inkscape:window-y="25"
     inkscape:window-maximized="0"
     inkscape:current-layer="svg4" />
  <path
     d="M 6.34,0.07 A 6.29,6.29 0 0 0 0.05,6.37 6.29,6.29 0 0 0 6.35,12.65 6.29,6.29 0 0 0 12.63,6.36 6.29,6.29 0 0 0 6.34,0.07 Z M 6.07,1.02 V 1.34 H 5.25 A 0.27,0.27 0 0 0 4.99,1.61 v 0.38 c 0,0.15 0.12,0.27 0.26,0.27 h 0.82 v 0.9 H 5.25 A 0.27,0.27 0 0 0 4.99,3.42 V 3.8 c 0,0.15 0.12,0.27 0.26,0.27 h 0.82 v 0.9 H 5.25 A 0.27,0.27 0 0 0 4.99,5.24 v 0.38 c 0,0.15 0.12,0.27 0.26,0.27 h 0.82 v 1 A 1.05,1.05 0 0 0 5.28,7.92 v 2.14 c 0,0.58 0.47,1.06 1.05,1.06 0.58,0 1.06,-0.47 1.06,-1.06 V 7.92 c 0,-0.48 -0.31,-0.87 -0.75,-1 V 6.83 h 0.8 c 0.15,0 0.27,-0.12 0.27,-0.26 V 6.19 A 0.27,0.27 0 0 0 7.45,5.92 H 6.65 V 4.96 h 0.8 c 0.14,0 0.26,-0.12 0.26,-0.27 V 4.31 A 0.27,0.27 0 0 0 7.44,4.04 H 6.64 V 3.17 h 0.8 c 0.15,0 0.27,-0.12 0.27,-0.26 V 2.53 A 0.27,0.27 0 0 0 7.44,2.26 H 6.64 V 1.03 a 5.4,5.4 0 0 1 5.1,5.39 5.4,5.4 0 0 1 -5.41,5.4 A 5.4,5.4 0 0 1 0.92000003,6.42 5.4,5.4 0 0 1 6.08,1.02 Z m 0.27,6.4 c 0.3,0 0.53,0.21 0.53,0.53 A 0.55,0.55 0 0 1 6.34,8.48 0.55,0.55 0 0 1 5.82,7.95 c 0,-0.32 0.23,-0.53 0.52,-0.53 z m 0,1.58 c 0.3,0 0.53,0.21 0.53,0.53 v 0.53 A 0.55,0.55 0 0 1 6.34,10.58 0.55,0.55 0 0 1 5.82,10.06 V 9.53 C 5.82,9.21 6.05,9 6.34,9 Z"
     id="path2"
     inkscape:connector-curvature="0"
     style="fill:#ff7f2a" />
</svg>
